!!!COM:	Anonymous
!!!OTL:	De m'a-griefve maladie / Se je ne suis mari&eacute;e
!!!AGN:	Song; Chanson
!!!SCT:	Ano3019
!!!SCA:	Ano3019
!!!SMS:	Dijon Chansonnier
!!!folio:	
!!!voices:	4
**kern	**kern	**kern	**kern
*staff4	*staff3	*staff2	*staff1
*Ivox	*Ivox	*Ivox	*Ivox
*I"Contratenor2	*I"Tenor	*I"Contratenor1	*I"Superius
*I'Ct2	*I'T	*I'Ct1	*I'S
*clefF4	*clefGv2	*clefGv2	*clefG2
*k[b-]	*k[b-]	*k[b-]	*k[b-]
*M2/1	*M2/1	*M2/1	*M2/1
*met(C|)	*met(C|)	*met(C|)	*met(C|)
=1-	=1-	=1-	=1-
!	!LO:TX:Y=24:t=Se je ne suis mariee...	!LO:TX:Y=24:t=Se je ne suis mariee...	!LO:TX:Y=24:t=De ma griefe maladie...
0BB-	1F	1B-	1.f
.	1F	1B-	.
.	.	.	2e
=2	=2	=2	=2
1BB-	1G	1B-	1d
1BB-	1G	1B-	1d
=3	=3	=3	=3
0AA	1A	1c	1c
.	1A	1c	[1f
=4	=4	=4	=4
1.D	1A	1d	2f]
.	.	.	2g
.	1A	1d	1a
4C	.	.	.
4BB-	.	.	.
=5	=5	=5	=5
1AA	1c	1e	1a
1AA	1c	1e	2g
.	.	.	[2cc
=6	=6	=6	=6
1A	1c	1.f	2cc]
.	.	.	2b-
1F	1c	.	[1a
.	.	2e	.
=7	=7	=7	=7
0G	0B-	[0d	2a]
.	.	.	2f
.	.	.	1g
=8	=8	=8	=8
0D	0A	0d]	0a
=9	=9	=9	=9
1D	0r	1.d	0f
1BB-	.	.	.
.	.	2e	.
=10	=10	=10	=10
1C	1A	1c	1r
1D	1A	1r	1f
=11	=11	=11	=11
0BB-	1.B-	1.d	1.g
.	2A	2c	2a
=12	=12	=12	=12
1r	1G	0B-	1.b-
1BB-	1F	.	.
.	.	.	2a
=13	=13	=13	=13
1C	1E	1en	1g
1D	1F	1d	1f
=14	=14	=14	=14
1E-i	1G	1c	1e-i
1D	1A	[1d	1f
=15	=15	=15	=15
1BB-	1B-	2d]	1g
.	.	1.d	.
1FF	2A	.	2f
.	2F	.	[2f
=16	=16	=16	=16
0C	1G	[0c	2f]
.	.	.	2d
.	1G	.	1e
=17	=17	=17	=17
1FF	0F	0c]	[0f
[1F	.	.	.
=18	=18	=18	=18
1F]	0r	1d	0f]
1D	.	[1f	.
=19	=19	=19	=19
0C	1A	1f]	0r
.	1A	1e	.
=20	=20	=20	=20
0BB-	1.B-	1d	0f
.	.	1B-	.
.	2A	.	.
=21	=21	=21	=21
1C	1G	1r	1e
1D	1F	1A	1f
=22	=22	=22	=22
1Eni	0E	1.G	1.g
1C	.	.	.
.	.	2A	2f
=23	=23	=23	=23
0D	1F	1B-	1.d
.	1G	1B-	.
.	.	.	2e
=24	=24	=24	=24
1AA	1A	1c	1f
1GG	1B-	1d	[1g
=25	=25	=25	=25
1C	1G	1e	2g]
.	.	.	2f
1D	1F	[1f	1d
=26	=26	=26	=26
0C	0G	1f]	1e
.	.	1e	1c
=27	=27	=27	=27
0FF	0F	1.f	1c
.	.	.	[1a
.	.	2e	.
=28	=28	=28	=28
1.F	0r	[0c	2a]
.	.	.	2g
.	.	.	1f
4E	.	.	.
4D	.	.	.
=29	=29	=29	=29
0C	1A	0c]	0e
.	1A	.	.
=30	=30	=30	=30
0BB-	1.B-	0d	1r
.	.	.	1d
.	2A	.	.
=31	=31	=31	=31
1C	1G	0r	1e
1D	1F	.	1f
=32	=32	=32	=32
1C	1E-i	1e-i	2g
.	.	.	1g
1E-i	1E-i	1c	.
.	.	.	2g
=33	=33	=33	=33
2D	1F	1d	1f
1BB-	.	.	.
.	1G	1B-	2d
2GG	.	.	[2e
=34	=34	=34	=34
1C	1A	1c	2e]
.	.	.	2f
1BB-	1B-	1d	2d
.	.	.	[2g
=35	=35	=35	=35
1E-i	1G	2c	2g]
.	.	1c	2e
1D	1F	.	[1f
.	.	2B-	.
=36	=36	=36	=36
0C	0G	0c	2f]
.	.	.	2d
.	.	.	2e
.	.	.	4d
.	.	.	4e
=37	=37	=37	=37
1D	0F	1A	1f
1F	.	[1d	1f
=38	=38	=38	=38
0E-i	0r	1d]	1g
.	.	1c	1g
=39	=39	=39	=39
1.D	1F	1.f	1a
.	1F	.	1a
2C	.	2e	.
=40	=40	=40	=40
0BB-	1G	1d	1.b-
.	1G	1d	.
.	.	.	4a
.	.	.	4b-
=41	=41	=41	=41
[0AA	1A	1.c	1.cc
.	1A	.	.
.	.	2d	[2a
=42	=42	=42	=42
0AA]	1A	1e	2a]
.	.	.	2b-
.	1A	1e	1cc
=43	=43	=43	=43
1r	1c	1c	2.a
.	.	.	4b-
[1A	1c	1f	2a
.	.	.	4g
.	.	.	4f
=44	=44	=44	=44
1A]	1c	1r	1e
1F	1c	1f	[1a
=45	=45	=45	=45
0G	0B-	[0d	2a]
.	.	.	2f
.	.	.	1g
=46	=46	=46	=46
0D	0A	0d]	0a
=47	=47	=47	=47
1D	0r	1.d	0f
1BB-	.	.	.
.	.	2e	.
=48	=48	=48	=48
1C	1A	1c	1r
1D	1A	1r	1f
=49	=49	=49	=49
0BB-	1.B-	1.d	1.g
.	2A	2c	2a
=50	=50	=50	=50
1r	1G	0B-	1.b-
1BB-	1F	.	.
.	.	.	2a
=51	=51	=51	=51
1C	1E	1en	1g
1D	1F	1d	1f
=52	=52	=52	=52
1E-i	1G	1c	1e-i
1D	1A	[1d	1f
=53	=53	=53	=53
1BB-	1B-	2d]	1g
.	.	1.d	.
1FF	2A	.	2f
.	2F	.	[2f
=54	=54	=54	=54
0C	0G	0c	2f]
.	.	.	2d
.	.	.	1e
=55	=55	=55	=55
0FFl	0Fl	0cl	0fl
==	==	==	==
*-	*-	*-	*-
!!!RDF**kern: l=long note in original notation
!!!RDF**kern: i=editorial accidental
!!!ENC:	Chris Gage 02-25-2015
!!!END:	2015/03/14/
!!!EED:	Jesse Rodin
!!!EEV:	2016/02/23/
!!!ONB:	Translated from MusicXML and edited on 2016/02/23/ by Craig Sapp
!!muse2ps: C^@{COM}\n@{SMS} @{folio}^v85,85,85,150Q16
